Origami/16x16/apps/openspades.svg

<svg width="16" height="16" version="1" xmlns="http://www.w3.org/2000/svg">
 <path d="m0 6v9.2c0 0.4432 0.3568 0.8 0.8 0.8h14.4c0.4432 0 0.8-0.3568 0.8-0.8v-9.2z" style="fill:#ffffbf"/>
 <path d="m16 6v-5.2c0-0.4432-0.3568-0.8-0.8-0.8h-14.4c-0.4432 0-0.8 0.3568-0.8 0.8v5.2z" style="fill:#6765f6"/>
 <rect x="4" y="6" width="2" height="2" style="fill:#3f3f3f"/>
 <rect x="10" y="6" width="2" height="2" style="fill:#3f3f3f"/>
</svg>

<svg xmlns="http://www.w3.org/2000/svg" width="16" height="16" version="1">
 <path style="fill:#ffffbf" d="m 0,6 0,9.2 C 0,15.6432 0.3568,16 0.8,16 l 14.4,0 C 15.6432,16 16,15.6432 16,15.2 L 16,6 Z"/>
 <path style="fill:#6765f6" d="M 16,6 16,0.8 C 16,0.3568 15.6432,0 15.2,0 L 0.8,0 C 0.3568,0 0,0.3568 0,0.8 L 0,6 Z"/>
 <rect style="fill:#3f3f3f" width="2" height="2" x="4" y="6"/>
 <rect style="fill:#3f3f3f" width="2" height="2" x="10" y="6"/>
</svg>
